X:1
T:Spring Shower
T:Spring Shower 
T:Contrafact of "The Gentle Rain" 
L:1/8
M:4/4
K:C
V:1 bass nm="Trombone" snm="Tbn."
V:1
!mp!"^Bossa Nova" E,2 |[Q:1/4=164]"^\n" C6 (B,A,) | A,4 z2 (E,2 |!<(! A,2 B,2 C2) E2!<)! | %4
"_dim." D8 | z4 CDC^A, | B, z E,4 (_B,,2 |!<(! =B,,2 E,2 _A,4)!<)! | z4 z2 E,2 | C6 (B,A,) | %10
 G,6"^Composed by Malaclypse\n               Arr. Blaze Lyon\n" D,2 |!<(! (G,2 A,2 _B,2 D) z!<)! | %12
"_dim." C8 | z2 A,3 F,3 | G,6 z2 | z8 | z4 z2 A,2 | E6 (DC) | B,8 | z4!<(! A,B,CD!<)! | %20
"_dim." E6 D2 | (_B,2 A,2 G,2 E,2) | (_B,2 A,6) | z4 G,A,_B,^C | D6 C2 | (_A,2 F,2) (_B,2 C2) | %26
 B,2 z2 B,4 | z2 _A,3 _G,3 | (E,2 _G,2 A,2) (C2 | C4) (E2 C2) | _B,2 z2 B,4 | z8 | z4 z2!mp! E,2 | %33
 C6 (B,A,) | A,4 z2 (E,2 |!<(! A,2 B,2 C2) E2!<)! |"_dim." D8 | z4 CDC^A, | B, z E,4 (_B,,2 | %39
!<(! =B,,2 E,2 _A,4)!<)! | z4 z2 E,2 | C6 (B,A,) | G,6 D,2 |!<(! (G,2 A,2 _B,2 D) z!<)! | %44
"_dim." C8 | z2 A,3 F,3 | G,6 z2 | z8 | z4 z2 A,2 | E6 (DC) | B,8 | z4!<(! A,B,CD!<)! | %52
"_dim." E6 D2 | (_B,2 A,2 G,2 E,2) | (_B,2 A,6) | z4 G,A,_B,^C | D6 C2 | (_A,2 F,2) (_B,2 C2) | %58
 =B,2 z2 B,4 | z2 _A,3 _G,3 | E,6 (_G,2 | _G,4) z4 | (D,4 D,) E,3- | E,2 _B,A, G,F,E,C, | %64
 A,,4 z2 (_A,,2 | =A,,2 C,2 D,2) (E,2 | E,4) z4 | z4 G,F,E,C, | A,,4 z2 (_A,,2 | %69
 =A,,2 C,2 D,2) (E,2 | E,4) z4 | z2 G,F, D,B,, G,,2 | A,,8 |] %73

